;FLAVOR:Marlin
;TIME:6521
;Filament used: 5.09655m
;Layer height: 0.28
;MINX:23.668
;MINY:37.731
;MINZ:0.28
;MAXX:211.332
;MAXY:196.403
;MAXZ:14
;Generated with Cura_SteamEngine 4.5.0
M140 S70
M105
M190 S70
M104 S230
M105
M109 S230
M82 ;absolute extrusion mode
; Ender 3 Custom Start G-code
G92 E0 ; Reset Extruder
G28 ; Home all axes
G1 Z2.0 F3000 ; Move Z Axis up little to prevent scratching of Heat Bed
G1 X0.1 Y20 Z0.3 F5000.0 ; Move to start position
G1 X0.1 Y200.0 Z0.3 F1500.0 E15 ; Draw the first line
G1 X0.4 Y200.0 Z0.3 F5000.0 ; Move to side a little
G1 X0.4 Y20 Z0.3 F1500.0 E30 ; Draw the second line
G92 E0 ; Reset Extruder
G1 Z2.0 F3000 ; Move Z Axis up little to prevent scratching of Heat Bed
G1 X5 Y20 Z0.3 F5000.0 ; Move over to prevent blob squish
G92 E0
G92 E0
G1 F2700 E-5
;LAYER_COUNT:50
;LAYER:0
M107
;MESH:V11_cr8.STL
G0 F6000 X116.805 Y195.204 Z0.28
;TYPE:WALL-INNER
G1 F2700 E0
G1 F1200 X118.195 Y195.204 E0.06472
G1 X119.585 Y195.18 E0.12946
G1 X120.975 Y195.132 E0.19422
G1 X122.363 Y195.059 E0.25894
G1 X123.751 Y194.962 E0.32373
G1 X125.136 Y194.842 E0.38846
G1 X126.519 Y194.697 E0.45321
G1 X127.899 Y194.529 E0.51795
G1 X129.276 Y194.337 E0.58269
G1 X130.65 Y194.12 E0.64746
G1 X132.019 Y193.88 E0.71218
G1 X133.386 Y193.616 E0.77701
G1 X134.745 Y193.328 E0.84169
G1 X136.1 Y193.018 E0.90642
G1 X137.45 Y192.683 E0.97119
G1 X138.793 Y192.325 E1.0359
G1 X140.131 Y191.944 E1.10068
G1 X141.461 Y191.539 E1.16542
G1 X142.784 Y191.112 E1.23016
G1 X144.099 Y190.661 E1.29489
G1 X145.407 Y190.188 E1.35966
G1 X146.706 Y189.692 E1.4244
G1 X147.996 Y189.174 E1.48913
G1 X149.277 Y188.634 E1.55386
G1 X150.549 Y188.07 E1.61865
G1 X151.811 Y187.487 E1.68339
G1 X153.187 Y186.819 E1.75461
G1 X154.55 Y186.129 E1.82574
G1 X155.902 Y185.415 E1.89694
G1 X157.241 Y184.678 E1.96811
G1 X158.567 Y183.918 E2.03928
G1 X159.88 Y183.135 E2.11046
G1 X161.18 Y182.329 E2.18168
G1 X162.465 Y181.501 E2.25287
G1 X163.735 Y180.65 E2.32405
G1 X164.99 Y179.779 E2.39518
G1 X166.231 Y178.886 E2.46638
G1 X167.456 Y177.97 E2.5376
G1 X168.664 Y177.035 E2.60873
G1 X169.858 Y176.079 E2.67995
G1 X171.032 Y175.101 E2.7511
G1 X172.192 Y174.104 E2.82233
G1 X173.332 Y173.086 E2.89349
G1 X174.456 Y172.051 E2.96464
G1 X175.561 Y170.994 E3.03585
G1 X176.648 Y169.919 E3.10703
G1 X177.716 Y168.826 E3.17819
G1 X178.765 Y167.714 E3.24937
G1 X179.795 Y166.584 E3.32057
G1 X180.805 Y165.437 E3.39173
G1 X181.795 Y164.271 E3.46296
G1 X182.765 Y163.09 E3.53412
G1 X183.714 Y161.892 E3.60529
G1 X184.642 Y160.677 E3.67648
G1 X185.549 Y159.447 E3.74764
G1 X186.435 Y158.2 E3.81887
G1 X187.299 Y156.939 E3.89005
G1 X188.142 Y155.664 E3.96122
G1 X188.961 Y154.374 E4.03237
G1 X189.759 Y153.07 E4.10356
G1 X190.534 Y151.752 E4.17475
G1 X191.285 Y150.421 E4.24591
G1 X192.014 Y149.077 E4.31711
G1 X192.719 Y147.721 E4.38827
G1 X193.402 Y146.352 E4.45951
G1 X194.06 Y144.973 E4.53066
G1 X194.694 Y143.581 E4.60189
G1 X195.303 Y142.179 E4.67306
G1 X195.889 Y140.768 E4.7442
G1 X196.45 Y139.346 E4.81538
G1 X196.987 Y137.915 E4.88656
G1 X197.499 Y136.474 E4.95776
G1 X197.985 Y135.024 E5.02897
G1 X198.446 Y133.568 E5.10009
G1 X198.883 Y132.102 E5.17132
G1 X199.294 Y130.629 E5.24253
G1 X199.679 Y129.151 E5.31365
G1 X200.04 Y127.664 E5.3849
G1 X200.373 Y126.173 E5.45604
G1 X200.68 Y124.676 E5.52719
G1 X200.964 Y123.173 E5.59842
G1 X201.22 Y121.666 E5.6696
G1 X201.597 Y119.14 E5.78852
G1 X201.58 Y118.511 E5.81782
G1 X201.439 Y117.846 E5.84947
G1 X201.224 Y117.313 E5.87624
G1 X200.864 Y116.736 E5.9079
G1 X200.442 Y116.274 E5.93704
G1 X199.994 Y115.922 E5.96357
G1 X199.445 Y115.622 E5.9927
G1 X198.794 Y115.408 E6.02461
G1 X198.113 Y115.322 E6.05657
G1 X197.484 Y115.358 E6.08591
G1 X196.873 Y115.501 E6.11513
G1 X196.25 Y115.775 E6.14682
G1 X195.772 Y116.092 E6.17353
G1 X195.285 Y116.557 E6.20488
G1 X195.025 Y116.897 E6.22481
G1 X194.121 Y118.217 E6.29931
G1 X193.185 Y119.536 E6.37462
G1 X192.222 Y120.843 E6.45021
G1 X191.244 Y122.126 E6.52533
G1 X190.234 Y123.399 E6.601
G1 X189.211 Y124.649 E6.67621
G1 X188.16 Y125.885 E6.75176
G1 X187.096 Y127.096 E6.82682
G1 X186.004 Y128.294 E6.9023
G1 X184.891 Y129.473 E6.9778
G1 X183.766 Y130.628 E7.05288
G1 X182.616 Y131.766 E7.12821
G1 X181.44 Y132.889 E7.20393
G1 X180.254 Y133.983 E7.27906
G1 X179.043 Y135.062 E7.35459
G1 X177.823 Y136.114 E7.4296
G1 X176.575 Y137.15 E7.50513
G1 X175.312 Y138.164 E7.58055
G1 X174.03 Y139.156 E7.65603
G1 X172.74 Y140.121 E7.73104
G1 X171.42 Y141.07 E7.80674
G1 X170.092 Y141.992 E7.88202
G1 X168.753 Y142.889 E7.95707
G1 X167.391 Y143.765 E8.03247
G1 X166.016 Y144.616 E8.10777
G1 X164.62 Y145.448 E8.18344
G1 X163.212 Y146.255 E8.25901
G1 X161.804 Y147.03 E8.33385
G1 X160.366 Y147.788 E8.40954
G1 X158.926 Y148.516 E8.48467
G1 X157.468 Y149.222 E8.56011
G1 X156.003 Y149.901 E8.63529
G1 X154.52 Y150.556 E8.71078
G1 X153.025 Y151.186 E8.78632
G1 X151.527 Y151.787 E8.86148
G1 X150.011 Y152.364 E8.93701
G1 X148.497 Y152.912 E9.01199
G1 X146.964 Y153.436 E9.08743
G1 X145.414 Y153.937 E9.16328
G1 X143.876 Y154.404 E9.23812
G1 X142.313 Y154.849 E9.31379
G1 X140.742 Y155.267 E9.38949
G1 X139.172 Y155.656 E9.46481
G1 X137.588 Y156.02 E9.54049
G1 X136.006 Y156.355 E9.61579
G1 X134.414 Y156.661 E9.69127
G1 X132.819 Y156.94 E9.76667
G1 X131.217 Y157.193 E9.84219
G1 X129.626 Y157.415 E9.91699
G1 X128.015 Y157.611 E9.99256
G1 X126.398 Y157.78 E10.06826
G1 X124.797 Y157.921 E10.1431
G1 X123.172 Y158.033 E10.21895
G1 X121.563 Y158.118 E10.29397
G1 X119.939 Y158.173 E10.36964
G1 X118.32 Y158.202 E10.44504
G1 X116.713 Y158.203 E10.51987
G1 X115.095 Y158.176 E10.59522
G1 X113.471 Y158.121 E10.67088
G1 X111.862 Y158.037 E10.74591
G1 X110.244 Y157.924 E10.82143
G1 X108.629 Y157.784 E10.89691
G1 X107.018 Y157.617 E10.97233
G1 X105.408 Y157.421 E11.04785
G1 X103.815 Y157.199 E11.12274
G1 X102.197 Y156.944 E11.19902
G1 X100.603 Y156.665 E11.27437
G1 X99.01 Y156.359 E11.3499
G1 X97.433 Y156.026 E11.42495
G1 X95.847 Y155.662 E11.50072
G1 X94.283 Y155.276 E11.57573
G1 X92.712 Y154.857 E11.65144
G1 X91.156 Y154.414 E11.72678
G1 X89.646 Y153.957 E11.80024
G1 X88.103 Y153.46 E11.87572
G1 X86.567 Y152.936 E11.95129
G1 X85.052 Y152.389 E12.02629
G1 X83.534 Y151.813 E12.1019
G1 X82.036 Y151.212 E12.17705
G1 X80.542 Y150.584 E12.25252
G1 X79.062 Y149.93 E12.32786
G1 X77.59 Y149.25 E12.40336
G1 X76.134 Y148.547 E12.47865
G1 X74.694 Y147.82 E12.55376
G1 X73.256 Y147.062 E12.62945
G1 X71.84 Y146.285 E12.70466
G1 X70.438 Y145.483 E12.77987
G1 X69.042 Y144.652 E12.85552
G1 X67.671 Y143.805 E12.93056
G1 X66.303 Y142.926 E13.00628
G1 X64.958 Y142.027 E13.08161
G1 X63.629 Y141.106 E13.1569
G1 X62.315 Y140.16 E13.23229
G1 X61.024 Y139.196 E13.30732
G1 X59.741 Y138.205 E13.38281
G1 X58.477 Y137.193 E13.4582
G1 X57.229 Y136.158 E13.5337
G1 X56.007 Y135.106 E13.60878
G1 X54.796 Y134.029 E13.68424
G1 X53.604 Y132.93 E13.75974
G1 X52.438 Y131.816 E13.83483
G1 X51.284 Y130.677 E13.91033
G1 X50.151 Y129.517 E13.98584
G1 X49.046 Y128.351 E14.06064
G1 X47.95 Y127.146 E14.13648
G1 X46.885 Y125.936 E14.21154
G1 X45.834 Y124.701 E14.28705
G1 X44.805 Y123.447 E14.36259
G1 X43.798 Y122.18 E14.43795
G1 X42.819 Y120.896 E14.51313
G1 X41.855 Y119.59 E14.58872
G1 X40.918 Y118.273 E14.66398
G1 X39.763 Y116.613 E14.75815
G1 X39.319 Y116.167 E14.78745
G1 X38.759 Y115.78 E14.81915
G1 X38.243 Y115.543 E14.84559
G1 X37.7 Y115.389 E14.87187
G1 X37.141 Y115.324 E14.89807
G1 X36.576 Y115.346 E14.9244
G1 X35.959 Y115.473 E14.95374
G1 X35.275 Y115.759 E14.98826
G1 X34.754 Y116.105 E15.01738
G1 X34.378 Y116.451 E15.04117
G1 X33.991 Y116.94 E15.07021
G1 X33.669 Y117.545 E15.10212
G1 X33.471 Y118.197 E15.13385
G1 X33.404 Y118.703 E15.15762
G1 X33.412 Y119.25 E15.18309
G1 X33.437 Y119.445 E15.19225
G1 X33.781 Y121.667 E15.29695
G1 X34.036 Y123.172 E15.36802
G1 X34.32 Y124.676 E15.43929
G1 X34.627 Y126.173 E15.51045
G1 X34.96 Y127.664 E15.58159
G1 X35.321 Y129.151 E15.65284
G1 X35.706 Y130.629 E15.72396
G1 X36.117 Y132.102 E15.79517
G1 X36.554 Y133.568 E15.8664
G1 X37.015 Y135.024 E15.93751
G1 X37.501 Y136.474 E16.00872
G1 X38.013 Y137.915 E16.07993
G1 X38.55 Y139.346 E16.1511
G1 X39.111 Y140.768 E16.22228
G1 X39.697 Y142.179 E16.29343
G1 X40.306 Y143.581 E16.3646
G1 X40.94 Y144.973 E16.43583
G1 X41.598 Y146.352 E16.50697
G1 X42.281 Y147.721 E16.57821
G1 X42.986 Y149.077 E16.64938
G1 X43.715 Y150.421 E16.72057
G1 X44.466 Y151.752 E16.79174
G1 X45.241 Y153.07 E16.86293
G1 X46.039 Y154.374 E16.93412
G1 X46.858 Y155.664 E17.00527
G1 X47.701 Y156.939 E17.07644
G1 X48.565 Y158.2 E17.14762
G1 X49.451 Y159.447 E17.21885
G1 X50.358 Y160.677 E17.29001
G1 X51.286 Y161.892 E17.3612
G1 X52.235 Y163.09 E17.43237
G1 X53.205 Y164.271 E17.50353
G1 X54.195 Y165.437 E17.57476
G1 X55.205 Y166.584 E17.64592
G1 X56.235 Y167.714 E17.71712
G1 X57.284 Y168.826 E17.7883
G1 X58.352 Y169.919 E17.85946
G1 X59.439 Y170.994 E17.93064
G1 X60.544 Y172.051 E18.00185
G1 X61.668 Y173.086 E18.07299
G1 X62.808 Y174.104 E18.14416
G1 X63.968 Y175.101 E18.21538
G1 X65.143 Y176.079 E18.28657
G1 X66.335 Y177.035 E18.35772
G1 X67.544 Y177.97 E18.42889
G1 X68.769 Y178.886 E18.50011
G1 X70.01 Y179.779 E18.5713
G1 X71.265 Y180.65 E18.64244
G1 X72.535 Y181.501 E18.71362
G1 X73.82 Y182.329 E18.7848
G1 X75.12 Y183.135 E18.85603
G1 X76.433 Y183.918 E18.92721
G1 X77.759 Y184.678 E18.99838
G1 X79.098 Y185.415 E19.06955
G1 X80.449 Y186.129 E19.1407
G1 X81.813 Y186.819 E19.21188
G1 X83.189 Y187.487 E19.2831
G1 X84.451 Y188.07 E19.34784
G1 X85.723 Y188.634 E19.41263
G1 X87.004 Y189.174 E19.47736
G1 X88.294 Y189.692 E19.54209
G1 X89.593 Y190.188 E19.60683
G1 X90.901 Y190.661 E19.6716
G1 X92.216 Y191.112 E19.73633
G1 X93.539 Y191.539 E19.80107
G1 X94.869 Y191.944 E19.8658
G1 X96.207 Y192.325 E19.93058
G1 X97.55 Y192.683 E19.9953
G1 X98.9 Y193.018 E20.06007
G1 X100.255 Y193.328 E20.1248
G1 X101.614 Y193.616 E20.18948
G1 X102.981 Y193.88 E20.25431
G1 X104.35 Y194.12 E20.31903
G1 X105.724 Y194.337 E20.3838
G1 X107.101 Y194.529 E20.44854
G1 X108.481 Y194.697 E20.51327
G1 X109.864 Y194.842 E20.57803
G1 X111.249 Y194.962 E20.64276
G1 X112.637 Y195.059 E20.70755
G1 X114.025 Y195.132 E20.77227
G1 X115.415 Y195.18 E20.83703
G1 X116.805 Y195.204 E20.90176
G0 F6000 X116.808 Y194.804
;TYPE:WALL-OUTER
G1 F1200 X118.192 Y194.804 E20.96621
G1 X119.575 Y194.78 E21.03062
G1 X120.958 Y194.732 E21.09505
G1 X122.339 Y194.66 E21.15945
G1 X123.72 Y194.563 E21.22391
G1 X125.098 Y194.444 E21.28831
G1 X126.474 Y194.3 E21.35274
G1 X127.847 Y194.132 E21.41715
G1 X129.217 Y193.941 E21.48156
G1 X130.584 Y193.725 E21.546
G1 X131.947 Y193.487 E21.61043
G1 X133.306 Y193.224 E21.67488
G1 X134.659 Y192.937 E21.73928
G1 X136.007 Y192.629 E21.80367
G1 X137.35 Y192.296 E21.8681
G1 X138.687 Y191.939 E21.93254
G1 X140.018 Y191.56 E21.99698
G1 X141.341 Y191.157 E22.06138
G1 X142.658 Y190.732 E22.12582
G1 X143.966 Y190.284 E22.1902
G1 X145.268 Y189.813 E22.25467
G1 X146.56 Y189.32 E22.31906
G1 X147.844 Y188.804 E22.3835
G1 X149.118 Y188.267 E22.44787
G1 X150.384 Y187.706 E22.51235
G1 X151.64 Y187.125 E22.57679
G1 X153.009 Y186.461 E22.64764
G1 X154.366 Y185.774 E22.71846
G1 X155.712 Y185.063 E22.78934
G1 X157.045 Y184.329 E22.8602
G1 X158.365 Y183.573 E22.93103
G1 X159.672 Y182.793 E23.00191
G1 X160.966 Y181.991 E23.0728
G1 X162.245 Y181.167 E23.14364
G1 X163.51 Y180.32 E23.21453
G1 X164.759 Y179.452 E23.28535
G1 X165.994 Y178.563 E23.35621
G1 X167.214 Y177.652 E23.42711
G1 X168.417 Y176.721 E23.49794
G1 X169.605 Y175.769 E23.56883
G1 X170.774 Y174.796 E23.63965
G1 X171.928 Y173.803 E23.71054
G1 X173.063 Y172.79 E23.78138
G1 X174.182 Y171.759 E23.85223
G1 X175.282 Y170.707 E23.9231
G1 X176.364 Y169.637 E23.99396
G1 X177.427 Y168.549 E24.06479
G1 X178.472 Y167.442 E24.13568
G1 X179.497 Y166.317 E24.20654
G1 X180.502 Y165.175 E24.27738
G1 X181.488 Y164.015 E24.34827
G1 X182.454 Y162.839 E24.41913
G1 X183.398 Y161.646 E24.48997
G1 X184.322 Y160.437 E24.56083
G1 X185.225 Y159.212 E24.63169
G1 X186.107 Y157.971 E24.70259
G1 X186.967 Y156.716 E24.77343
G1 X187.806 Y155.446 E24.8443
G1 X188.622 Y154.162 E24.91514
G1 X189.416 Y152.864 E24.986
G1 X190.187 Y151.552 E25.05686
G1 X190.935 Y150.227 E25.12771
G1 X191.661 Y148.889 E25.19859
G1 X192.363 Y147.539 E25.26944
G1 X193.042 Y146.177 E25.34031
G1 X193.697 Y144.804 E25.41114
G1 X194.329 Y143.418 E25.48207
G1 X194.935 Y142.023 E25.55289
G1 X195.518 Y140.618 E25.62373
G1 X196.077 Y139.202 E25.69461
G1 X196.611 Y137.778 E25.76543
G1 X197.121 Y136.343 E25.83634
G1 X197.605 Y134.9 E25.90721
G1 X198.064 Y133.45 E25.97803
G1 X198.499 Y131.991 E26.04893
G1 X198.908 Y130.525 E26.1198
G1 X199.291 Y129.053 E26.19062
G1 X199.65 Y127.573 E26.26153
G1 X199.982 Y126.089 E26.33234
G1 X200.288 Y124.599 E26.40317
G1 X200.57 Y123.102 E26.47411
G1 X200.825 Y121.603 E26.54491
G1 X201.196 Y119.116 E26.66199
G1 X201.181 Y118.558 E26.68799
G1 X201.055 Y117.963 E26.71631
G1 X200.866 Y117.495 E26.73981
G1 X200.544 Y116.979 E26.76813
G1 X200.169 Y116.568 E26.79404
G1 X199.773 Y116.257 E26.81748
G1 X199.285 Y115.991 E26.84336
G1 X198.705 Y115.8 E26.8718
G1 X198.099 Y115.723 E26.90024
G1 X197.542 Y115.755 E26.92622
G1 X197 Y115.882 E26.95214
G1 X196.443 Y116.127 E26.98048
G1 X196.023 Y116.406 E27.00396
G1 X195.584 Y116.825 E27.03221
G1 X195.349 Y117.132 E27.05022
G1 X194.447 Y118.449 E27.12455
G1 X193.507 Y119.773 E27.20015
G1 X192.54 Y121.085 E27.27605
G1 X191.557 Y122.375 E27.35157
G1 X190.547 Y123.648 E27.42723
G1 X189.515 Y124.908 E27.50307
G1 X188.465 Y126.144 E27.57859
G1 X187.392 Y127.365 E27.65428
G1 X186.295 Y128.569 E27.73012
G1 X185.182 Y129.748 E27.80562
G1 X184.047 Y130.912 E27.88132
G1 X182.892 Y132.054 E27.95695
G1 X181.717 Y133.178 E28.03267
G1 X180.52 Y134.282 E28.10849
G1 X179.309 Y135.361 E28.18402
G1 X178.078 Y136.422 E28.25969
G1 X176.825 Y137.462 E28.33552
G1 X175.557 Y138.48 E28.41123
G1 X174.275 Y139.472 E28.48671
G1 X172.973 Y140.445 E28.5624
G1 X171.654 Y141.395 E28.63809
G1 X170.32 Y142.321 E28.7137
G1 X168.969 Y143.225 E28.7894
G1 X167.602 Y144.104 E28.86507
G1 X166.221 Y144.96 E28.94073
G1 X164.825 Y145.792 E29.0164
G1 X163.411 Y146.602 E29.09228
G1 X161.991 Y147.383 E29.16774
G1 X160.553 Y148.142 E29.24346
G1 X159.1 Y148.876 E29.31926
G1 X157.636 Y149.585 E29.395
G1 X156.165 Y150.267 E29.4705
G1 X154.675 Y150.925 E29.54635
G1 X153.18 Y151.555 E29.62189
G1 X151.669 Y152.161 E29.6977
G1 X150.153 Y152.738 E29.77323
G1 X148.626 Y153.291 E29.84885
G1 X147.087 Y153.817 E29.92458
G1 X145.537 Y154.318 E30.00043
G1 X143.986 Y154.789 E30.07591
G1 X142.416 Y155.236 E30.15192
G1 X140.845 Y155.654 E30.22762
G1 X139.262 Y156.046 E30.30356
G1 X137.678 Y156.41 E30.37924
G1 X136.082 Y156.747 E30.45519
G1 X134.49 Y157.054 E30.53069
G1 X132.888 Y157.334 E30.60641
G1 X131.278 Y157.588 E30.68231
G1 X129.674 Y157.812 E30.75772
G1 X128.057 Y158.009 E30.83357
G1 X126.44 Y158.178 E30.90928
G1 X124.825 Y158.32 E30.98477
G1 X123.2 Y158.432 E31.06062
G1 X121.577 Y158.517 E31.13629
G1 X119.953 Y158.573 E31.21196
G1 X118.327 Y158.602 E31.28768
G1 X116.706 Y158.603 E31.36317
G1 X115.081 Y158.576 E31.43884
G1 X113.457 Y158.521 E31.51451
G1 X111.834 Y158.436 E31.59018
G1 X110.209 Y158.323 E31.66603
G1 X108.594 Y158.183 E31.74152
G1 X106.977 Y158.015 E31.81722
G1 X105.36 Y157.818 E31.89307
G1 X103.754 Y157.594 E31.96857
G1 X102.128 Y157.338 E32.04522
G1 X100.528 Y157.058 E32.12085
G1 X98.935 Y156.752 E32.19639
G1 X97.344 Y156.416 E32.2721
G1 X95.758 Y156.052 E32.34787
G1 X94.18 Y155.662 E32.42356
G1 X92.609 Y155.244 E32.49926
G1 X91.046 Y154.799 E32.57493
G1 X89.523 Y154.338 E32.64903
G1 X87.98 Y153.841 E32.72451
G1 X86.438 Y153.315 E32.80038
